storage/app/icons/phosphoricons/light/book-open-text-light.svg

<svg xmlns="http://www.w3.org/2000/svg" fill="currentColor" viewBox="0 0 256 256"><path d="M232 50h-72a38 38 0 0 0-32 17.55A38 38 0 0 0 96 50H24a6 6 0 0 0-6 6v144a6 6 0 0 0 6 6h72a26 26 0 0 1 26 26 6 6 0 0 0 12 0 26 26 0 0 1 26-26h72a6 6 0 0 0 6-6V56a6 6 0 0 0-6-6M96 194H30V62h66a26 26 0 0 1 26 26v116.31A37.86 37.86 0 0 0 96 194m130 0h-66a37.87 37.87 0 0 0-26 10.32V88a26 26 0 0 1 26-26h66ZM160 90h40a6 6 0 0 1 0 12h-40a6 6 0 0 1 0-12m46 38a6 6 0 0 1-6 6h-40a6 6 0 0 1 0-12h40a6 6 0 0 1 6 6m0 32a6 6 0 0 1-6 6h-40a6 6 0 0 1 0-12h40a6 6 0 0 1 6 6"/></svg>

<svg xmlns="http://www.w3.org/2000/svg" viewBox="0 0 256 256" fill="currentColor"><path d="M232,50H160a38,38,0,0,0-32,17.55A38,38,0,0,0,96,50H24a6,6,0,0,0-6,6V200a6,6,0,0,0,6,6H96a26,26,0,0,1,26,26,6,6,0,0,0,12,0,26,26,0,0,1,26-26h72a6,6,0,0,0,6-6V56A6,6,0,0,0,232,50ZM96,194H30V62H96a26,26,0,0,1,26,26V204.31A37.86,37.86,0,0,0,96,194Zm130,0H160a37.87,37.87,0,0,0-26,10.32V88a26,26,0,0,1,26-26h66ZM160,90h40a6,6,0,0,1,0,12H160a6,6,0,0,1,0-12Zm46,38a6,6,0,0,1-6,6H160a6,6,0,0,1,0-12h40A6,6,0,0,1,206,128Zm0,32a6,6,0,0,1-6,6H160a6,6,0,0,1,0-12h40A6,6,0,0,1,206,160Z"/></svg>
